markets/CVX.svg

<svg width="42" height="42" viewBox="0 0 42 42" fill="none" xmlns="http://www.w3.org/2000/svg">
<circle cx="21" cy="21" r="21" fill="white"/>
<g clip-path="url(#clip0_7698_85195)">
<path d="M24.8068 12.459H22.8744V15.4033H24.8068V12.459Z" fill="#1682FE"/>
<path d="M19.2609 7H17.3285V9.94429H19.2609V7Z" fill="#1682FE"/>
<path d="M13.715 9.80859H11.7826V12.7529H13.715V9.80859Z" fill="#60D8A4"/>
<path d="M10.9517 21H9V29.4039H10.9517V21Z" fill="#F4BB3B"/>
<path d="M10.9517 12.5957H9V20.9996H10.9517V12.5957Z" fill="#60D8A4"/>
<path d="M27.5701 15.2676H25.6377V18.2119H27.5701V15.2676Z" fill="#1682FE"/>
<path d="M27.5701 23.7891H25.6377V26.7334H27.5701V23.7891Z" fill="#FF5A5A"/>
<path d="M24.8068 26.5957H22.8744V29.54H24.8068V26.5957Z" fill="#FF5A5A"/>
<path d="M19.2609 32.0566H17.3285V35.0009H19.2609V32.0566Z" fill="#FF5A5A"/>
<path d="M13.715 29.248H11.7826V32.1923H13.715V29.248Z" fill="#F4BB3B"/>
<path d="M33 18.1922V12.5961H30.2174V9.8078H24.6715V7H19.1256V9.8078H13.5797V12.6156H10.7971V29.4039H13.5797V32.2117H19.1256V35.0195H24.6715V32.2117H30.2174V29.4039H33V23.7883H27.4541V26.5961H24.6715V29.4039H19.1256V26.5961H16.3623V15.4039H19.1449V12.5961H24.6908V15.4039H27.4734V18.2117H33V18.1922Z" fill="#3A3A3A"/>
</g>
<defs>
<clipPath id="clip0_7698_85195">
<rect width="24" height="28" fill="white" transform="translate(9 7)"/>
</clipPath>
</defs>
</svg>

<svg xmlns="http://www.w3.org/2000/svg" width="42" height="42" fill="none"><circle cx="21" cy="21" r="21" fill="#fff"/><g clip-path="url(#a)"><path fill="#1682FE" d="M24.807 12.459h-1.933v2.944h1.933V12.46ZM19.26 7h-1.932v2.944h1.933V7Z"/><path fill="#60D8A4" d="M13.715 9.809h-1.932v2.944h1.932V9.809Z"/><path fill="#F4BB3B" d="M10.952 21H9v8.404h1.952V21Z"/><path fill="#60D8A4" d="M10.952 12.596H9V21h1.952v-8.404Z"/><path fill="#1682FE" d="M27.57 15.268h-1.932v2.944h1.932v-2.944Z"/><path fill="#FF5A5A" d="M27.57 23.79h-1.932v2.943h1.932V23.79ZM24.807 26.596h-1.933v2.944h1.933v-2.944ZM19.26 32.057h-1.932V35h1.933v-2.944Z"/><path fill="#F4BB3B" d="M13.715 29.248h-1.932v2.944h1.932v-2.944Z"/><path fill="#3A3A3A" d="M33 18.192v-5.596h-2.783V9.808h-5.545V7h-5.546v2.808H13.58v2.808h-2.783v16.788h2.783v2.808h5.546v2.807h5.546v-2.807h5.545v-2.808H33v-5.616h-5.546v2.808h-2.782v2.808h-5.546v-2.808h-2.764V15.404h2.783v-2.808h5.546v2.808h2.782v2.808H33v-.02Z"/></g><defs><clipPath id="a"><path fill="#fff" d="M9 7h24v28H9z"/></clipPath></defs></svg>
